X: 7967
T:Tune from CzechoSlovakia
O:Czechoslovakia
M:4/4
K:D
AAF2 BBA2 | AA/2A/2 GF G4 | ccB2 ccB2 |1\
Ad cB AF G^G :|2 AA/2A/2 Bc d4 :|
|: F2A2 d2AF | G2A2 c4 | G2A2 c2BA | \
F2A2 dc BA | F2A2 d2AF | G2A2 c4 | \
G2A2 cA Bc | d2d2 d4 :|
|: d2c2 B>d dB | A>A AA c4 | A>A AA c4 | \
A>A AA d4| d2c2 B>d dB| A>A AA c4| \
A>A AA cA Bc | d2f2d4:|
